X: 137022
T: DAN THE COBBLER
Q: "Irish Jig."
R: Jig.
%R: jig
B: James Kerr "Merry Melodies" v.1 p.37 s.0 #22
Z: 2016 John Chambers <jc:trillian.mit.edu>
M: 6/8
L: 1/8
K: D
uD |\
DFA uB2uA | def gfe | fdf ecA | BGB AFD |\
DFA uB2uA | def gfe | fdf ecA | Add d2 :|
|: uf |\
fad fad | faa agf | egc egc | egg gfe |\
fef gfg | agf efg | fed cBA | Add d2 :|

%%sep 1 1 500
%%sep 1 1 500

